X:102
T:Jubilee Waltz. JBs.102
R:Waltz
S:Jas.Blackshaw MS, 1837, N.Shropshire
A:North Shropshire
Z:T. Weatherall 2006
M:3/8
L:1/8
Q:3/8=40
K:G
dâ€™|dâ€™2 b/a/|gg a/b/|câ€™câ€™/b/a/g/|fad|d2b/a/|ggg|aaf|g2:|!
|:d|gg/b/a/f/|gg/b/a/câ€™/|bgd|gg/b/a/f/|gg/b/a/f/|g/f/g/b/a/f/|g2:|!
|:d|â€Bugle Soloâ€dBg|gdB|ced|â€as writtenâ€B/G/F/ d|dBg|gec|dcA|G2:|

